X: 328
T: A Puppet
R: waltz
M: 3/4
K: Dmajor
F/S|:"Dmaj7"A2 c2 f>A|"G"B>c B2 B>F|"Dmaj7"A2 c2 f>A|
"G"B>c B2 B>F|"D"A2 B2 d2|"F#m7"e2 a2 a>f|"G"g>f e2 d2|"A7"e2 A4:|
|:"Em"e2 e>de>f|"Em/D"e2 e>de>f|"C#m7b5"g2 f2 "G/B"d2|"Asus4"e2 d2 e2|"Dmaj7"f2 e2 "D"d>e|
"Bm7"B4 A>B|"Em7"d2 e2 f2!coda!|1 "A7"A6:|2 "A7"A4 A>SF||!coda! "A7"A6|"D"d6||

